/* XPM */
static char *de4d6c2fada34ac598fbbfe6644c6ac7JJVyc6b1TE8UPsgN[] = {
/* columns rows colors chars-per-pixel */
"100 65 252 2 ",
"   c #020302",
".  c #070807",
"X  c #160703",
"o  c #031607",
"O  c #1A1603",
"+  c #050717",
"@  c #021816",
"#  c #150418",
"$  c #260805",
"%  c #261801",
"&  c #360E08",
"*  c #072909",
"=  c #082F11",
"-  c #392A02",
";  c #2D2F04",
":  c #060826",
">  c #090D31",
",  c #2F0633",
"<  c #022826",
"1  c #023035",
"2  c #4E0E0A",
"3  c #6B1206",
"4  c #503001",
"5  c #6E2F04",
"6  c #53082E",
"7  c #6F0A2D",
"8  c #0A4F0C",
"9  c #324F02",
"0  c #0B6E0F",
"q  c #337204",
"w  c #034E2F",
"e  c #066C30",
"r  c #504F02",
"t  c #6F4E01",
"y  c #526B01",
"u  c #6E6B02",
"i  c #0C0D50",
"p  c #30074D",
"a  c #023150",
"s  c #0C0E6D",
"d  c #2E0A6F",
"f  c #042E6D",
"g  c #4E0A4E",
"h  c #520B71",
"j  c #6D0F70",
"k  c #6B0C53",
"l  c #024E51",
"z  c #016D4E",
"x  c #01506D",
"c  c #046E71",
"v  c #901102",
"b  c #AF1004",
"n  c #903103",
"m  c #AE2F05",
"M  c #910B32",
"N  c #AD102E",
"B  c #D21102",
"V  c #EC1604",
"C  c #D02E03",
"Z  c #F3300D",
"A  c #DE2D31",
"S  c #8F4F03",
"D  c #AE5005",
"F  c #906F01",
"G  c #AF6F05",
"H  c #D04E02",
"J  c #F4510B",
"K  c #D06B03",
"L  c #F46F0B",
"P  c #FB5031",
"I  c #FA7030",
"U  c #9B1C5D",
"Y  c #C83059",
"T  c #FA6E51",
"R  c #FD7666",
"E  c #DD5163",
"W  c #B9417F",
"Q  c #0D900C",
"!  c #318E06",
"~  c #0EAE0E",
"^  c #028E32",
"/  c #07AD30",
"(  c #2FAF08",
")  c #518F04",
"_  c #6F8E06",
"`  c #70AE03",
"'  c #50B204",
"]  c #0ACE0E",
"[  c #10F013",
"{  c #0CF330",
"}  c #24E51E",
"|  c #4EF00D",
" . c #6EEF0D",
".. c #5DE61D",
"X. c #028E4F",
"o. c #05AE50",
"O. c #018B73",
"+. c #05AE70",
"@. c #04CF51",
"#. c #0FF352",
"$. c #0FF370",
"%. c #22ED64",
"&. c #52FB55",
"*. c #6DFD6F",
"=. c #5FFC61",
"-. c #908D08",
";. c #AF8F04",
":. c #A1AE06",
">. c #CF9003",
",. c #F68E0F",
"<. c #D1AF02",
"1. c #F4B00F",
"2. c #FC8E31",
"3. c #FCB02F",
"4. c #B1EE0B",
"5. c #9BEA14",
"6. c #F6D110",
"7. c #D1F410",
"8. c #F2EC16",
"9. c #FBD12E",
"0. c #F6ED30",
"q. c #CFE11A",
"w. c #FA9251",
"e. c #FBAF53",
"r. c #FD8E71",
"t. c #FEB071",
"y. c #90FE70",
"u. c #AEFD6E",
"i. c #A2F951",
"p. c #FBD251",
"a. c #F7EE51",
"s. c #FAD071",
"d. c #D1FA6D",
"f. c #F5EF71",
"g. c #D3F951",
"h. c #0D108F",
"j. c #022E90",
"k. c #0E13B0",
"l. c #2C0EAE",
"z. c #032FAF",
"x. c #2F0B8F",
"c. c #5D199C",
"v. c #054E8D",
"b. c #036D8F",
"n. c #034FAD",
"m. c #0370AF",
"M. c #7946BC",
"N. c #1117CE",
"B. c #032ECF",
"V. c #2C28D7",
"C. c #0E2FEA",
"Z. c #2B26D8",
"A. c #4F34CD",
"S. c #0050D0",
"D. c #056ECE",
"F. c #0D51F0",
"G. c #2F51F6",
"H. c #0E70EF",
"J. c #3170F8",
"K. c #6F53D2",
"L. c #4B53E9",
"P. c #516EF5",
"I. c #6E71EE",
"U. c #6154DB",
"Y. c #8E2F8E",
"T. c #8B2B8C",
"R. c #9350AF",
"E. c #B270B4",
"W. c #A7539B",
"Q. c #D36D8E",
"!. c #CA5E8C",
"~. c #936FD1",
"^. c #9571D3",
"/. c #058E8E",
"(. c #04AB92",
"). c #0491AE",
"_. c #03B1AE",
"`. c #13F38F",
"'. c #30FC8F",
"]. c #03CEB0",
"[. c #2FFDAE",
"{. c #0BE4A4",
"}. c #4FFC8F",
"|. c #6DFF8E",
" X c #52FCAC",
".X c #6FFEAE",
"XX c #038FCF",
"oX c #01B1CF",
"OX c #0C92EC",
"+X c #3090F3",
"@X c #0EAFEE",
"#X c #2FB0F4",
"$X c #538EF6",
"%X c #718FF8",
"&X c #50B0F3",
"*X c #6FB0F6",
"=X c #04D0CC",
"-X c #12F0D0",
";X c #30FBD2",
":X c #0FCFE9",
">X c #15E9E3",
",X c #2EEEE7",
"<X c #2ED2ED",
"1X c #4FFAD2",
"2X c #6EFBD1",
"3X c #51CFF0",
"4X c #70D0F5",
"5X c #50EFE9",
"6X c #70F0ED",
"7X c #FA9587",
"8X c #FAB190",
"9X c #F5B4B0",
"0X c #DB8FAC",
"qX c #8DFE91",
"wX c #B0FD8D",
"eX c #8FFEB0",
"rX c #AEFEB3",
"tX c #FCCF8F",
"yX c #CFFB90",
"uX c #F6F18F",
"iX c #FDD0B1",
"pX c #CFFCB0",
"aX c #F7F2B0",
"sX c #B28ECF",
"dX c #9092F0",
"fX c #8FAFF8",
"gX c #AEB3F2",
"hX c #A698E5",
"jX c #D2AFD5",
"kX c #C8B9E6",
"lX c #D4A4C9",
"zX c #90FBCF",
"xX c #B1FED0",
"cX c #8ED0F8",
"vX c #B1D1F7",
"bX c #8DF2EE",
"nX c #B0F3F2",
"mX c #F7D2CF",
"MX c #D2FDCF",
"NX c #FBE6D8",
"BX c #FBF7D8",
"VX c #F2F5CE",
"CX c #CED1F2",
"ZX c #E7D9E9",
"AX c #D8E7FA",
"SX c #D9F8F8",
"DX c #CCF6EF",
"FX c #FBF8E4",
"GX c #E3FAFC",
"HX c #EEECF2",
"JX c #DAC5DC",
"KX c #BB82BC",
/* pixels */
"NXFXFXFXFXFXNXNXFXFXFXFXFXFXFXFXBXBXBXBXBXBXBXBXBXBXBXFXFXFXFXFXFXFXFXFXFXFXFXFXFXGXGXGXGXGXGXGXGXGXGXGXGXGXSXGXSXGXGXGXGXGXGXGXGXGXGXGXGXGXGXGXGXGXGXGXAXGXAXGXGXGXGXHXHXGXHXHXHXHXHXHXHXHXHXHXHXHXHXHX",
"NXNXNXNXNXNXNXNXNXNXNXNXNXNXNXNXBXBXBXBXBXBXBXBXBXBXBXBXFXFXFXFXFXFXFXVXVXVXVXMXMXMXSXSXSXSXSXSXSXSXSXSXSXSXSXSXSXSXSXSXSXSXSXSXSXGXGXSXSXAXAXAXAXAXAXAXAXAXAXAXAXAXAXAXAXAXHXHXZXZXZXZXZXZXZXZXZXZXHXHX",
"NXmXmXmXmXmXNXNXNXNXNXNXNXNXNXNXNXNXBXBXVXVXBXBXBXBXBXBXBXBXBXBXVXVXVXVXMXMXMXMXMXMXMXMXDXDXDXDXDXDXSXSXSXSXSXSXSXSXSXSXSXSXSXSXSXSXAXAXAXAXAXAXAXAXAXAXAXAXAXAXCXCXCXCXCXCXZXZXZXZXZXZXZXZXZXZXZXZXZXZX",
"mXmXmXmXmXmXmXmXNXNXNXNXNXNXNXNXNXNXVXVXVXVXVXVXBXBXBXBXBXBXBXVXVXMXMXMXMXMXMXMXMXMXMXMXDXDXDXDXDXDXDXDXSXSXSXSXDXDXDXDXSXSXSXSXAXAXAXAXAXAXAXAXAXAXAXAXCXCXCXCXCXCXCXCXCXCXCXCXZXZXZXZXZXZXZXZXZXZXmXmX",
"mXmXmXmXmXmXmXmXmXmXmXmXmXmXmXNXNXNXVXVXVXVXVXVXVXVXVXVXVXVXVXVXMXMXMXMXMXMXMXMXMXMXMXMXMXDXDXDXDXDXDXDXDXDXDXDXDXDXDXDXDXDXDXSXSXSXSXAXAXAXAXAXCXCXCXCXCXCXCXCXCXCXCXCXCXCXCXCXCXCXJXJXJXJXJXJXmXmXmXmX",
"9X9XmXmXmXmXmXmXiXiXiXiXiXiXiXmXmXaXVXVXVXVXVXVXaXaXVXVXVXVXVXVXMXMXMXMXMXMXMXMXxXxXxXxXxXxXxXxXMXDXDXDXDXDXDXDXDXDXDXDXDXDXDXDXDXDXDXAXvXvXvXvXvXvXvXCXCXCXCXCXCXCXCXCXCXCXCXCXCXJXJXJXJXJXJXJXJXmXmXmX",
"9X9X9XiXiXiXiXiXiXiXiXiXiXiXiXiXiXaXaXaXaXaXaXaXaXaXaXaXaXaXaXaXpXpXpXpXpXpXrXrXrXxXxXxXxXxXxXxXxXxXnXnXnXnXnXnXnXnXnXnXnXnXnXnXnXDXnXvXvXvXvXvXvXvXvXvXvXvXvXvXgXgXgXgXgXkXkXkXkXkXkXjXjXjXjXjXjX9X9X9X",
"9X9X9X9X9X9XiXiXiXiXiXiXiXiXiXiXiXiXaXaXaXaXaXaXaXaXaXaXaXaXaXaXpXpXpXpXpXrXrXrXrXrXxXxXxXxXxXxXxXxXxXnXnXnXnXnXnXnXnXnXnXnXnXnXnXnXvXvXvXvXvXvXvXvXvXvXvXgXgXgXgXgXgXgXgXgXgXkXkXkXjXjXjXjXjXjXlX9X9X9X",
"9X9X9X9X9X9X9X9XiXiXiXiXiXiXiXiXiXiXaXaXaXaXaXaXaXaXaXaXaXaXaXpXpXpXpXpXpXrXrXrXrXrXrXxXxXxXxXxXxXxXxXnXnXnXnXnXnXnXnXnXnXnXnXnXnXvXvXvXvXvXvXvXvXvXvXvXgXgXgXgXgXgXgXgXgXgXgXkXkXkXjXjXjXjXjXlXlX9X9X9X",
"8X8X8X8X9X9X9X9X9XiXiXiXiXtXiXtXtXtXtXuXuXuXaXaXuXuXaXaXuXuXuXyXyXyXyXyXyXwXwXrXrXrXrXrXrXxXxXxXxXxXxXxXnXnXnXnXnXnXnXnXnXnXnXnXnXcXcXcXcXvXvXvXvXvXgXgXgXfXgXgXgXgXgXgXgXgXhXhXkXjXjXjXjXjXjXlXlX0X9X9X",
"7X7X8X8X8X8X8X8X8X8XtXtXtXtXtXtXtXtXtXtXuXuXuXuXuXuXuXuXuXuXuXyXyXyXyXyXwXwXwXwXqXqXeXeXeXrXrXzXzXzXzXzXbXbXbXbXbXbXbXbXbXbXbXbXcXcXcXcXcXcXcXcXfXfXfXfXfXfXfXfXfXgXhXhXhXhXhXhXsXsXsXjXjXjXjXlX0X0X0X0X",
"7X7X7X8X8X8X8X8X8X8X8XtXtXtXtXtXtXtXtXtXuXuXuXuXuXuXuXuXuXuXuXyXyXyXyXyXwXwXwXqXqXqXqXeXeXeXeXeXzXzXzXzXbXbXbXbXbXbXbXbXbXbXbXbXcXcXcXcXcXcXcXcXfXfXfXfXfXfXfXfXdXdXdXdXdXhXhXhXsXsXsXsXlXlXlXlX0X0X0X0X",
"7X7X7X7X7X7X8X8X8X8X8X8X8XtXtXtXtXtXtXtXtXuXuXuXuXuXuXuXuXuXuXyXyXyXyXwXwXwXqXqXqXqXqXeXeXeXeXeXzXzXzXzXbXbXbXbXbXbXbXbXbXbXbXbXcXcXcXcXcXcXcXfXfXfXfXfXfXfXfXdXdXdXdXdXdXhXhXhXsXsXsXsXsXKXKX0X0X0X0X0X",
"7X7X7X7Xr.r.r.7X8X8X8Xt.t.t.tXtXtXtXtXs.s.uXuXuXuXuXuXuXuXuXuXyXyXyXwXwXwXy.y.qXqX|.qXeXeXeXeXeXeXzXzXzXbXbXbXbXbXbXbXbXbXbX6X4XcXcXcXcXcXcXfXfXfXfXfXfXfXdXdXdXdXdXdXdXdXhXhXhXhXsXsXsXsXKXKXKX0X0X0X0X",
"R r.r.r.r.r.r.r.t.8X8Xt.t.t.8XtXs.s.s.s.s.s.f.f.f.f.f.f.uXf.f.d.d.wXu.u.y.y.y.*.|.|.|.|..X.X.X.XeXeXzXzXbXbXbXbXbXbXbXbXbX6X6X4X4X4XcX4X4X*X*X*X*XfX*X%X%X%X%XdXdXdXdXdXdXdXhXhXsXsXsXsXsXKXKXKX0X0X0X0X",
"R R r.r.r.r.r.r.r.t.t.t.t.t.t.s.s.s.s.s.s.s.f.f.f.f.f.f.f.f.d.d.d.u.u.u.y.y.*.*.*.|.|.|.|..X.X.X.X.X2X2X2X6X6X6X6X6X6X6X6X6X4X4X4X4X4X4X4X*X*X*X*X*X%X%X%X%X%X%X%XI.I.^.^.^.^.^.^.^.E.sXE.E.E.E.Q.Q.Q.Q.",
"R R R R r.r.r.r.r.r.t.t.t.t.t.t.t.s.s.s.s.s.f.f.f.f.f.f.f.f.d.d.d.u.u.y.y.y.*.*.*.*.|.|.|.|..X.X.X.X2X2X2X6X6X6X6X6X6X6X6X6X4X4X4X4X4X4X*X*X*X*X*X*X%X%X%X%X%XI.I.I.I.I.I.^.^.^.~.~.^.E.E.E.E.E.Q.Q.Q.Q.",
"R R R R R r.r.r.r.w.w.t.t.t.t.e.t.s.s.s.s.p.p.a.f.a.f.f.f.d.d.d.d.u.u.y.y.y.*.*.*.*.*.|.|.|..X.X.X.X2X2X2X6X6X6X6X6X6X6X6X4X4X4X4X4X4X4X*X*X*X*X*X%X%X%X%X%XI.I.I.I.I.I.I.I.~.^.~.~.^.E.E.E.E.E.Q.Q.Q.Q.",
"T T R R T T w.r.w.w.w.w.e.e.e.e.e.s.s.s.p.p.p.p.a.a.a.f.f.d.g.d.g.u.i.y.y.*.*.=.=.=.*.*.|.}. X X X.X2X2X2X5X5X5X5X5X5X5X5X3X3X3X3X3X3X&X&X&X&X&X$X$X%X%X%XI.P.P.I.I.I.I.I.K.K.~.~.~.~.E.E.E.E.E.Q.Q.Q.E ",
"T T T T T T T w.w.w.w.w.e.e.e.e.e.e.p.p.p.p.p.p.a.a.a.a.a.g.g.g.i.i.i.i.y.*.=.&.=.=.=.=.}.}. X X X X X1X1X1X5X5X5X5X5X5X3X3X3X3X3X3X&X&X&X&X&X$X$X$X$X$XP.P.P.P.P.I.I.I.U.U.K.~.~.~.~.E.R.W.W.W.Q.Q.E E ",
"T T T T T T T T w.w.w.w.w.e.e.e.e.e.p.p.p.p.p.p.a.a.a.a.g.g.g.g.i.i.i.i.*.=.&.&.&.&.=.=.}.}.}. X X X X1X1X1X5X5X5X5X5X5X3X3X3X3X3X3X&X&X&X&X&X$X$X$X$XP.P.P.P.P.L.L.L.U.U.U.K.K.~.~.R.R.R.W.W.W.!.!.E E ",
"P P P T T T T T w.w.w.w.w.w.e.e.e.e.e.p.p.p.p.p.a.a.a.a.g.g.g.g.i.i.i.i.=.=.&.&.&.&.=.=.}.}.}. X X X X1X1X1X5X5X5X5X5X5X3X3X3X3X3X&X&X&X&X&X$X$X$X$XP.P.P.P.P.P.L.L.L.L.U.U.K.K.K.R.R.R.R.W.W.W.!.!.W E ",
"P P P P T T T I I 2.w.w.2.2.w.e.e.3.3.p.p.9.9.0.0.0.0.0.g.g.g.g.i.i.i.i.=.&.&.&.&.&.&.&.=.}.}.}. X X X1X1X1X5X5X,X5X5X,X<X<X<X3X3X&X&X&X&X&X+X+X$XP.P.P.P.P.L.L.L.L.L.L.U.U.U.K.M.M.R.R.R.W.W.W.!.W W E ",
"P P P P P I I I I I 2.2.2.2.2.3.e.3.3.9.9.9.9.0.0.0.0.0.0.g.g.g.i.i.i...&.&.&.&.&.&.&.%.%.%.'.'.'.[.[.;X;X;X;X,X,X,X,X,X<X<X<X<X#X#X#X#X#X+X+X+X+XJ.J.J.J.J.G.G.L.L.L.L.L.A.U.K.M.M.R.R.R.W.W.W.!.W W Y ",
"A P P P P P P I I I I 2.2.2.2.3.3.3.3.3.9.9.9.9.9.0.0.0.0.7.7.7.5.5.5. .....} } } &.&.&.%.%.'.'.'.[.[.;X;X;X;X,X,X,X,X,X<X<X<X<X#X#X#X#X#X+X+X+XJ.J.J.J.G.G.G.G.G.L.L.L.A.A.A.A.K.R.R.R.Y.Y.Y.Y.!.W Y Y ",
"Z P P P P P P P I I I 2.2.2.2.2.3.3.3.3.9.9.9.9.9.0.0.0.8.7.7.7.5.5.5. ...| } } } #.&.%.%.%.'.'.'.[.[.[.;X;X;X,X,X,X,X,X<X<X<X<X#X#X#X#X#X+X+X+XJ.J.J.J.G.G.G.G.G.G.V.V.A.A.A.A.M.M.R.Y.Y.Y.Y.Y.W Y Y Y ",
"Z Z Z Z P P P J I I I L ,.2.2.2.3.3.3.3.3.9.6.6.8.8.0.8.7.7.7.4.5.5. . .| } } } { { #.#.%.%.$.'.'.'.[.[.;X;X;X>X>X,X,X>X:X:X:X<X#X#X#X#X+X+X+X+XJ.J.J.G.G.G.G.G.G.V.V.V.V.A.A.A.A.c.c.c.Y.Y.Y.Y.U Y Y Y ",
"V Z Z Z Z J J J J L L L L ,.2.,.,.1.1.1.1.6.6.6.6.8.8.8.7.7.7.4.5.5. . .| } } [ [ { { #.#.%.$.`.`.`.[.[.-X-X-X>X>X>X>X>X:X:X:X:X@X@X@XOXOXOXOXH.H.H.F.G.G.G.F.C.C.Z.Z.Z.V.A.A.A.A.c.c.c.T.Y.T.U U Y Y Y ",
"V V Z Z Z Z J J J L L L L ,.,.,.,.1.1.1.1.6.6.6.6.8.8.8.7.7.7.4.5.5. . .| | } [ [ { { #.#.#.$.$.`.`.`.[.-X-X-X-X>X>X>X:X:X:X:X@X@X@XOXOXOXOXH.H.H.H.F.F.F.C.C.C.C.Z.Z.Z.Z.V.A.A.c.c.c.c.T.T.T.U U Y Y Y ",
"V V Z Z Z Z J J J J L L L L ,.,.,.,.1.1.1.6.6.6.6.8.8.8.7.7.7.4.5.5. . .| | [ [ [ [ { { #.#.$.$.$.`.`.{.-X-X-X-X>X>X>X:X:X:X:X@X@X@XOXOXOXOXH.H.H.F.F.F.C.C.C.C.C.Z.Z.Z.Z.V.V.A.c.c.c.c.c.T.T.U U U Y Y ",
"V V V Z Z Z Z J J J L L L L L ,.,.,.1.1.1.1.6.6.6.6.8.8.7.7.7.4.5.5. .| | | [ [ [ [ { { #.#.$.$.`.`.`.{.{.-X-X-X>X>X>X:X:X:X:X@X@X@XOXOXOXOXH.H.F.F.F.F.C.C.C.C.C.C.Z.Z.Z.Z.l.l.c.c.c.c.c.c.T.U U N N N ",
"V V V V Z Z Z J J J J L L L L ,.,.,.1.1.1.1.6.6.6.6.8.8.7.7.7.4.5.5. .| | | [ [ [ { { { #.#.$.$.`.`.`.{.-X-X-X-X>X>X>X:X:X:X:X@X@X@XOXOXOXOXH.H.F.F.F.F.C.C.C.C.C.C.N.N.Z.Z.l.l.c.c.c.c.c.c.U U U N N N ",
"V V V V Z Z Z Z J J J L L L L ,.,.,.,.1.1.1.1.6.6.6.8.8.7.7.4.4.5. . .| | } [ [ [ { { { #.#.$.$.$.`.`.{.{.-X-X-X-X=X=X=X:X:X@XoX@XOXOXOXOXH.H.H.S.F.F.F.C.C.C.C.C.N.N.N.N.l.l.l.c.c.c.h j j j U U N N N ",
"V V V V Z Z Z Z J J J L L L L ,.,.,.,.1.1.1.1.6.6.6.6.q.q.7.4.4.5. . .| | } [ [ [ [ { { #.#.$.$.$.`.`.{.{.-X-X-X=X=X=X=X=XoXoXoX@XOXOXOXXXD.D.H.S.F.F.F.C.C.C.C.N.N.N.N.N.l.l.l.c.c.c.h j j j U U N N N ",
"V V V V Z Z Z C J H H H L L L L ,.,.>.>.<.1.1.<.6.6.6.q.q.4.4.5.5. . .| | } [ [ [ [ { { @.@.#.$.$.`.`.{.{.{.-X=X=X=X=X=XoXoXoXoXXXXXXXXXD.D.D.D.S.S.S.B.B.B.B.N.N.N.N.N.N.l.l.l.c.c.c.h j j j U U M N N ",
"B B B B V C C C H H H H H K K K K >.>.>.>.<.<.<.<.<.<.q.q.4.4.5. . .| | | } ] ] ] ] ] ] @.@.@.@.@.$.`.{.{.{.].].=X=X=X=XoXoXoXoXXXXXXXD.D.D.D.S.S.S.S.B.B.B.B.N.N.N.N.N.N.l.l.l.c.c.c.h h j j k U M M N ",
"B B B B B C C C C H H H H K K K K >.>.>.>.<.<.<.<.<.<.q.q.4.5.5. . .| | } ] ] ] ] ] ] ] @.@.@.@.@.$.{.{.].].].].=X=X=XoXoXoXoXXXXXXXXXD.D.D.D.S.S.S.S.B.B.B.B.N.N.N.N.k.k.l.l.x.x.x.c.h j j j k U M M M ",
"B B B B B C C C C H H H H K K K K >.>.>.>.>.<.<.<.<.<.<.q.:.:.:.` ' ' ' ( ] ] ] ] ] ] ] @.@.@.@.@.$.{.].].].].].]._._._.oXoXXX).XXXXXXm.m.D.D.S.S.S.S.B.B.B.B.N.N.k.k.k.k.l.l.x.x.x.h h j j j k M M M M ",
"B B B B C C C C C H H H H K K K K K >.>.>.>.<.<.<.<.<.<.:.:.:.` ` ' ' ( ( ] ] ] ] ] ] / @.@.@.@.@.+.+.(.(.].].]._._._._._.).).).XXm.m.m.m.m.n.n.S.S.B.B.B.B.B.k.k.k.k.k.k.l.x.x.x.x.h h h k k k M M M M ",
"B b b B B C C m m H H D D D K K K G G >.>.;.;.;.<.<.<.:.:.:.:.` ` ' ' ( ( ~ ~ ] ] ] ] / / o.o.o.+.+.+.(.(.(._._._._._._.).).).).).m.m.m.m.n.n.n.n.n.z.z.z.B.k.k.k.k.k.k.k.l.x.x.x.h h h h k k k 7 M M M ",
"b b b b b m m m m m D D D D D G G G G G ;.;.;.;.;.;.:.:.:.:.:.` ` ' ' ( ( ~ ~ ~ ~ ~ ~ / / / o.o.o.+.+.+.(.(.(.(._._._.).).).).).m.m.m.m.m.n.n.n.n.z.z.z.z.z.k.k.k.k.k.h.h.h.x.x.d h h h g g g k 7 M M M ",
"b b b b b m m m m m D D D D D G G G G G ;.;.;.;.;.;.:.:.:.:.-.` ` ' ' ( ( ( ~ ~ ~ ~ ~ / / / o.o.o.+.+.+.(.(.(.(.(.(././.).).).).m.m.m.m.n.n.n.n.n.z.z.z.z.z.k.k.k.k.h.h.h.h.x.x.d d h h g g g k 7 M M M ",
"b b b b b m m m m m D D D D D D G G G G G ;.;.;.;.;.;.:.:.:.-.` ` ' ' ( ( ( ~ ~ ~ ~ ~ / / / o.o.o.+.+.+.(.(.(.(.(././././.)./.b.b.b.b.b.v.v.v.n.n.z.z.z.z.z.k.h.h.h.h.h.h.h.x.d d d h g g g g g 7 7 M M ",
"b v v v b m m m n n n S D D D S S F F F F F ;.;.;.;.;.:.-.-._ _ ) ) ) ! ! ( Q ~ ~ ~ ~ / / / o.o.o.o.+.+.+.(.(.(././././././.b.b.b.b.b.v.v.v.v.v.j.j.j.j.z.j.h.h.h.h.h.h.h.h.x.d d d p g g g g 6 7 7 M M ",
"v v v v v v n n n n n S S S S S S S F F F F F F -.-.-.-.-._ _ _ ) ) ! ! ! Q Q Q Q Q Q Q ^ ^ ^ X.X.X.X.O.O.O./././././././.b.b.b.b.b.b.v.v.v.v.v.j.j.j.j.j.h.h.h.h.h.h.h.h.s d d d d p g g g g 6 6 7 7 7 ",
"v v v v v v n n n n n n S S S S S S F F F F F F F -.-.-.-._ _ _ ) ) ! ! ! Q Q Q Q Q Q Q ^ ^ ^ X.X.X.X.O.O.O././././././.b.b.b.b.b.b.v.v.v.v.v.j.j.j.j.j.j.h.h.h.h.h.h.h.s s d d d p p p g g g 6 6 6 7 7 ",
"v v v v v v n n n n n n n S S S S S S F F F F F F F -.-.-._ _ _ ) ) ! ! ! Q Q Q Q Q Q Q ^ ^ ^ X.X.X.X.O.O.O./././.O.c c c b.b.b.b.v.v.v.v.v.v.j.j.j.j.j.j.h.h.h.h.h.h.s s s d d d p p p g g g 6 6 6 7 7 ",
"v v v v v v v n n n n 5 5 t S S S S t t F F F F F F F u u _ _ ) ) ) ! ! ! Q Q Q Q Q Q Q ^ ^ ^ X.X.X.X.X.O.O.O.O.c c c c c c b.c x x x x v.v.f f f j.j.j.j.h.h.h.h.s s s s s d d d p p p p g 6 6 6 6 6 7 ",
"3 3 3 3 3 3 3 3 5 5 5 5 5 5 t t t t t t t t u u u u u u u u y y y y q q q 0 0 0 0 0 0 0 e e e e z z z z z z c c c c c c c c x x x x x x f f f f f f f f s s s s s s s s s s i p p p p p , , , 6 6 6 6 6 ",
"3 3 3 3 3 3 3 3 5 5 5 5 5 5 5 t t t t t t t t u u u u u u u y y y q q q 0 0 0 0 0 0 0 0 e e e e e z z z z z c c c c c c c x x x x x x x f f f f f f f f s s s s s s s s i i i i p p p p , , , , 6 6 6 6 ",
"3 3 3 3 3 3 3 3 3 5 5 5 5 5 5 5 t t t t t t t t u u u u u y y y y q q q 0 0 0 0 0 0 0 0 e e e e e z z z z z z c c c c x x x x x x x x x f f f f f f f s s s s s s s s i i i i i p p p , , , , , 6 6 6 6 ",
"3 3 3 3 3 3 3 3 3 3 5 5 5 5 5 5 5 t t t t t t t t t u u y y y y y q q q 0 0 0 0 0 0 0 0 e e e e e z z z z z z z z l l l l l l x x x x a f f f f f f s s s i s s s s i i i i i i p p p , , , , , 6 6 2 2 ",
"3 3 3 3 3 3 3 3 3 3 5 5 5 5 5 4 4 4 4 r t t t t r r r r r r r r 9 9 9 9 8 8 8 8 0 0 0 0 0 e e e e e e z z z z z l l l l l l l l l a a a a a a f f f s i i i i i i i i i i i i i i , , , , , , , 6 2 2 2 ",
"2 2 2 2 2 2 2 2 2 2 4 4 4 4 4 4 4 4 4 4 4 r r r r r r r r r r 9 9 9 9 8 8 8 8 8 8 8 8 8 8 8 w w w w w w w l l l l l l l l l l l a a a a a a a a a i i i i i i i i i i i i i i i > , , , , , , , & 2 2 2 ",
"2 2 2 2 2 2 2 2 2 2 2 4 4 4 4 4 4 4 4 4 4 4 4 r r r r r r r 9 9 9 9 9 8 8 8 8 8 8 8 8 8 8 8 w w w w w w w w l l l l l l l l a a a a a a a a a a a i i i i i i i i i i i i i i > > > , , , , , , & & & & ",
"2 2 2 2 2 2 2 2 2 2 2 4 4 4 4 4 4 4 4 4 4 4 4 4 r r r r r 9 9 9 9 9 9 8 8 8 8 8 8 8 8 8 8 8 w w w w w w w w l l l l l a a 1 1 1 a a a a a a a a i i i i i i i i i i i i i > > > > : > # , , , # $ & & & ",
"2 2 2 2 2 2 2 2 & & & - 2 - - - 4 - 4 - - - - - 4 - - - ; ; ; ; 9 9 9 8 8 8 8 8 8 8 8 8 8 8 = = w w w w w w w w 1 1 1 1 1 1 1 1 a a a a 1 1 1 > > > > > > > > > > > > > > > > > : # # # # # # # $ $ & & ",
"& & & & & & & & & & & & & - - - - - - - - - - - - ; ; ; ; ; ; ; ; ; * * = = = * * * * * * = = = = = < < < < 1 1 1 1 1 1 1 1 1 1 1 1 1 1 > > > > > > > > > > > > > > > > > > : : : # # # # # # # $ $ $ $ ",
"$ $ $ & & & & $ & & % % % % % % % % % ; - - - - ; ; ; ; ; ; ; ; ; ; * * * * * * * * * * * = = = = = = < < < < < < < < < < < < < < < < < > : : : : : : > > > > > : : : : : : : : # # # # # # # # X X $ $ ",
"$ $ $ $ $ $ $ $ $ $ $ % % % % % O O % % % % % % ; ; ; ; ; ; % O ; ; * * * * * * * * * * * = = = = = = < < < < < < < < < < < < < @ @ @ @ @ : + + : : : : : : : : : : : + : : + + + # # # # # # # X X X X ",
"$ X X $ $ $ $ $ $ $ $ $ % % % % O O O O % % % % % % % % O O O O O O o o o o * * o * o * * * * * @ @ @ @ @ @ @ @ < < @ @ @ @ @ @ @ @ @ @ @ @ @ + + + + + + + + + + + + + + + + + + + + # # # # X X X X X ",
"X X X X X X X X X X X X O O O O O O O O O O O O O O O O O O O O o o o o o o o o o o o o o o o o @ o o @ @ @ @ @ @ @ @ @ @ @ @ @ @ @ @ @ @ @ + + + + + + + + + + + + + + + + + + + + + . . . . . X X X X ",
"X X X X X X X X X X X X X X X X X X O X X X X X O O O O O O O O O o o o @ @ o o o o o o o o o o o o o @ @ @ @ @ @ @ @ @ @ o o o @ @ @ @ + + + + + + + + + + + + + + + + + + + + + + + . . . . . . . . X ",
". X X X X X X X X X . . . . . . . . . . . . X X X X X . . . . . . . o o . . o o . . . o . . . . o . . o o o o o o o o . . . . . + + + . . . + + + + + + + + + + + + + + + + + . . . . . . . . . . .     ",
"                                                                                                                                                                                                        "
};
